X: 1
T: Bidh Eoin
R: Highland
M: 4/4
L: 1/8
K: Bmin
|: d>cB>A F2E>F | A2A>B c<AA>c | d>cB>A F2E2 | f>ed>c d<BB>c :|
|: d2d>f e2e>f | d2d>f e>cA2 | d2d>f e2d>e | f>ed>c d<BB>c :|
